src/images/Jest.svg

<svg width="97" height="97" viewBox="0 0 97 97" fill="none" xmlns="http://www.w3.org/2000/svg">
<mask id="mask0_24_987" style="mask-type:alpha" maskUnits="userSpaceOnUse" x="0" y="0" width="97" height="97">
<path fill-rule="evenodd" clip-rule="evenodd" d="M78.8824 74.3341C82.328 72.3384 84.6839 69.0062 85.3463 65.1916C85.8477 62.3031 85.3778 59.4033 84.1188 56.8261C82.3054 58.0895 80.104 58.8333 77.7309 58.8333C72.0552 58.8333 67.355 54.5898 66.6281 49.1093C64.2916 49.0244 61.8239 49.0251 59.5007 49.1102C58.7735 54.5902 54.0735 58.8333 48.398 58.8333C47.8282 58.8333 47.2685 58.7899 46.7213 58.7075C44.8963 61.5879 42.6756 64.2836 40.0929 66.7202C36.0973 70.49 31.5926 73.2838 26.7039 75.0248L25.8075 75.3439L24.9613 74.9092C18.7773 71.7323 15.8311 65.0095 17.7046 58.8267C16.6932 58.7136 15.723 58.4649 14.8108 58.1005C14.5075 58.7365 14.1959 59.378 13.8779 60.0316L13.8773 60.0328C12.037 63.813 10.1342 67.7215 9.43034 71.9656C8.67076 76.5471 8.3697 84.9075 14.8895 89.4263C23.7903 95.5949 33.2298 90.9068 44.1602 85.4776L44.1621 85.4766C49.6233 82.7641 55.2705 79.9591 61.1008 78.5215C63.3061 77.9776 65.5635 77.6519 67.7466 77.3372C71.8216 76.7496 75.6706 76.1943 78.8824 74.3341ZM25.7592 47.6944C25.7592 43.942 22.7065 40.8892 18.9539 40.8892C15.2015 40.8892 12.1487 43.942 12.1487 47.6944C12.1487 48.9189 12.4755 50.0679 13.044 51.0617C13.8293 52.4344 15.0777 53.5094 16.576 54.0701C17.3167 54.347 18.1178 54.4996 18.9539 54.4996C19.1112 54.4996 19.2669 54.4924 19.4215 54.4818C21.6309 54.331 23.5532 53.1217 24.6847 51.3575C25.3638 50.2991 25.7592 49.0423 25.7592 47.6944ZM47.3879 40.8999C44.1129 41.3895 41.5927 44.2204 41.5927 47.6297C41.5927 50.0233 42.8361 52.1307 44.7098 53.3444C45.7735 54.0332 47.0393 54.435 48.398 54.435C48.6297 54.435 48.8589 54.4231 49.0845 54.4005C51.9854 54.1084 54.3528 51.9865 55.016 49.21C55.1372 48.7027 55.2032 48.1738 55.2032 47.6297C55.2032 46.6008 54.9725 45.6252 54.5619 44.75C54.3457 44.289 54.0772 43.8573 53.7676 43.4595C52.5218 41.8581 50.5795 40.8245 48.398 40.8245C48.0549 40.8245 47.7175 40.8505 47.3879 40.8999ZM66.9134 44.7188C67.4533 42.7147 68.5374 40.9325 69.9953 39.5376L62.8826 25.0281L55.8409 39.2669C57.4465 40.6983 58.6402 42.5827 59.2157 44.7188C61.7212 44.6242 64.3934 44.6242 66.9134 44.7188ZM86.0841 4.39844H39.6623L50.5896 36.6437C51.0849 36.7425 51.5687 36.8727 52.0382 37.0343L62.9 15.0711L73.7311 37.1662C74.1811 36.9936 74.6447 36.85 75.1199 36.7359L86.0841 4.39844ZM84.2465 49.5927C84.4341 48.9708 84.5362 48.3121 84.5362 47.6297C84.5362 44.092 81.8226 41.1773 78.3676 40.8553C78.1578 40.8357 77.9458 40.8245 77.7309 40.8245C75.388 40.8245 73.3212 42.0169 72.0965 43.8244C71.846 44.1943 71.6279 44.5879 71.4531 45.0044C71.1137 45.8126 70.9257 46.6995 70.9257 47.6297C70.9257 48.2398 71.0077 48.8309 71.159 49.3939C71.9382 52.2937 74.5888 54.435 77.7309 54.435C79.1777 54.435 80.5197 53.9798 81.6236 53.207C82.862 52.3401 83.7997 51.0723 84.2465 49.5927Z" fill="#99425B"/>
</mask>
<g mask="url(#mask0_24_987)">
<rect x="9.03979" y="-12.2847" width="87.9602" height="104.636" fill="url(#paint0_linear_24_987)"/>
</g>
<defs>
<linearGradient id="paint0_linear_24_987" x1="26.48" y1="77.6676" x2="87.3763" y2="-7.53527" gradientUnits="userSpaceOnUse">
<stop offset="0.00833321" stop-color="#5C03BC"/>
<stop offset="0.53125" stop-color="#E536AB"/>
<stop offset="0.898958" stop-color="#F4E5F0"/>
</linearGradient>
</defs>
</svg>

<svg xmlns="http://www.w3.org/2000/svg" width="97" height="97" fill="none"><mask id="a" width="97" height="97" x="0" y="0" maskUnits="userSpaceOnUse" style="mask-type:alpha"><path fill="#99425B" fill-rule="evenodd" d="M78.882 74.334c3.446-1.996 5.802-5.328 6.464-9.142.502-2.889.032-5.789-1.227-8.366a11.138 11.138 0 0 1-6.388 2.007c-5.676 0-10.376-4.243-11.103-9.724a99.638 99.638 0 0 0-7.127.001c-.727 5.48-5.427 9.723-11.103 9.723-.57 0-1.13-.043-1.677-.125a41.748 41.748 0 0 1-6.628 8.012c-3.996 3.77-8.5 6.564-13.39 8.305l-.895.319-.847-.435c-6.184-3.177-9.13-9.9-7.256-16.082a11.125 11.125 0 0 1-2.894-.727c-.303.636-.615 1.278-.933 1.932-1.841 3.781-3.744 7.69-4.448 11.934-.76 4.581-1.06 12.942 5.46 17.46 8.9 6.169 18.34 1.48 29.27-3.948l.002-.001c5.461-2.713 11.108-5.518 16.939-6.956 2.205-.543 4.463-.87 6.646-1.184 4.075-.587 7.924-1.143 11.135-3.003ZM25.76 47.694a6.813 6.813 0 0 0-6.805-6.805 6.813 6.813 0 0 0-6.805 6.805 6.76 6.76 0 0 0 .895 3.368 6.843 6.843 0 0 0 3.532 3.008 6.777 6.777 0 0 0 2.846.412 6.807 6.807 0 0 0 5.263-3.124 6.761 6.761 0 0 0 1.074-3.664ZM47.388 40.9c-3.275.49-5.795 3.32-5.795 6.73a6.804 6.804 0 0 0 3.117 5.714 6.763 6.763 0 0 0 4.374 1.056 6.82 6.82 0 0 0 6.12-6.77 6.762 6.762 0 0 0-1.436-4.17 6.792 6.792 0 0 0-6.38-2.56Zm19.525 3.819a11.215 11.215 0 0 1 3.082-5.181l-7.112-14.51-7.042 14.239a11.225 11.225 0 0 1 3.375 5.452 104.43 104.43 0 0 1 7.697 0Zm19.171-40.32H39.662L50.59 36.643c.495.099.979.229 1.448.39L62.9 15.071l10.831 22.095c.45-.172.914-.316 1.389-.43L86.084 4.398Zm-1.838 45.194c.188-.622.29-1.28.29-1.963 0-3.538-2.713-6.453-6.168-6.775a6.8 6.8 0 0 0-6.271 2.97 6.8 6.8 0 0 0-.644 1.18 6.788 6.788 0 0 0-.294 4.39c.78 2.899 3.43 5.04 6.572 5.04a6.766 6.766 0 0 0 3.893-1.228 6.831 6.831 0 0 0 2.623-3.614Z" clip-rule="evenodd"/></mask><g mask="url(#a)"><path fill="url(#b)" d="M9.04-12.285H97V92.351H9.04z"/></g><defs><linearGradient id="b" x1="26.48" x2="87.376" y1="77.668" y2="-7.535" gradientUnits="userSpaceOnUse"><stop offset=".008" stop-color="#5C03BC"/><stop offset=".531" stop-color="#E536AB"/><stop offset=".899" stop-color="#F4E5F0"/></linearGradient></defs></svg>
